X:79
T:She Was Poor But She Was Honest
Z:Jack Campin, http://www.campin.me.uk/
F:Jack Campin's Nine-Note Tunebook
% last edit 03-02-2013
G:Victorian bawdy music hall ballad
M:4/4
L:1/8
Q:1/4=120
K:G
DG | B2- B3 F AG | FE3 z2 \
FA | d2- d3 c A_B|=B4  z2
DG | B2- B3 F AG | FE3 z2 \
FA | d2- d3 c EF | G4  z2||
P:Chorus
DG | B2- B3 F AG | FE3 z2 \
FA | d2- d3 c A_B|=B4  z2
DG | B2- B3 F AG | FE3 z2 \
d^c|=c2- c3 A EF | G4  z2|]

